packages/gestalt-icons-android/vr-theme/ic_vr_globe-checked_gestalt.svg

<svg width="24" height="24" viewBox="0 0 24 24" fill="none" xmlns="http://www.w3.org/2000/svg">
<path fill-rule="evenodd" clip-rule="evenodd" d="M9.37483 19.3644C8.63771 17.7427 8.12886 15.5188 8.02125 13H15.9787C15.9403 13.8996 15.8506 14.764 15.7167 15.5786L17.6902 15.9029C17.8417 14.9813 17.9408 14.0081 17.9804 13H22.9552L23.9511 13.0898C23.9835 12.7306 24 12.3671 24 12C24 5.37258 18.6274 0 12 0C5.37258 0 0 5.37258 0 12C0 18.6274 5.37258 24 12 24C12.7439 24 13.4728 23.9322 14.1807 23.8022L13.8193 21.8351C13.2301 21.9433 12.6221 22 12 22C11.2526 22 10.2491 21.2878 9.37483 19.3644ZM12 2C11.2526 2 10.2491 2.71217 9.37483 4.63563C8.63771 6.2573 8.12886 8.48118 8.02125 11H15.9788C15.8711 8.48118 15.3623 6.2573 14.6252 4.63563C13.7509 2.71217 12.7474 2 12 2ZM7.5541 3.80802C6.6821 5.72642 6.12808 8.24241 6.01959 11H2.04938C2.4163 7.30433 4.79525 4.20055 8.07531 2.79955C7.88574 3.12233 7.71193 3.4608 7.5541 3.80802ZM6.01959 13H2.04938C2.4163 16.6957 4.79525 19.7995 8.07532 21.2005C7.88574 20.8777 7.71193 20.5392 7.5541 20.192C6.6821 18.2736 6.12808 15.7576 6.01959 13ZM21.9506 11H17.9804C17.8719 8.24241 17.3179 5.72642 16.4459 3.80802C16.2881 3.4608 16.1143 3.12233 15.9247 2.79955C19.2048 4.20055 21.5837 7.30433 21.9506 11Z" fill="black"/>
<path d="M23.7071 16.2071L22.2929 14.7929L17.5 19.5858L15.7071 17.7929L14.2929 19.2071L17.5 22.4142L23.7071 16.2071Z" fill="black"/>
</svg>

<svg xmlns="http://www.w3.org/2000/svg" width="24" height="24"><path d="M9.37 19.36A18 18 0 0 1 8.02 13h7.96q-.06 1.35-.26 2.58l1.97.32q.23-1.39.29-2.9h4.98l1 .09Q24 12.55 24 12a12 12 0 1 0-9.82 11.8l-.36-1.96q-.89.15-1.82.16c-.75 0-1.75-.71-2.63-2.64m5.26-14.72A18 18 0 0 1 15.98 11H8.02c.1-2.52.62-4.74 1.35-6.36C10.25 2.7 11.25 2 12 2s1.75.71 2.63 2.64M7.55 3.8A20 20 0 0 0 6.02 11H2.05a10 10 0 0 1 6.03-8.2q-.3.48-.53 1m0 16.38q.24.53.53 1.01A10 10 0 0 1 2.05 13h3.97c.1 2.76.66 5.27 1.53 7.2m14.4-9.2h-3.97a20 20 0 0 0-1.53-7.2q-.24-.51-.53-1a10 10 0 0 1 6.03 8.2m1.76 5.2-1.42-1.4-4.79 4.79-1.8-1.8-1.4 1.42 3.2 3.2z"/></svg>
